local/templates/.default/frontend/main/images/icons/vk.svg

<svg width="36" height="36" viewBox="0 0 36 36" fill="none" xmlns="http://www.w3.org/2000/svg">
<path fill-rule="evenodd" clip-rule="evenodd" d="M18 36C27.9411 36 36 27.9411 36 18C36 8.05887 27.9411 0 18 0C8.05887 0 0 8.05887 0 18C0 27.9411 8.05887 36 18 36ZM27.0384 21.1707C27.6604 21.7193 28.3036 22.2865 28.8696 22.9194C29.1775 23.2634 29.5289 23.6811 29.7998 24.17C30.0385 24.6024 30.0432 25.0873 29.8122 25.4673C29.6258 25.7741 29.3093 25.963 28.9438 25.9855C28.936 25.9859 28.9281 25.9862 28.9203 25.9862H25.2524C24.2697 26.0565 23.4142 25.7327 22.6375 24.9967C22.2827 24.6606 21.943 24.3063 21.6146 23.9636L21.6032 23.9517C21.4548 23.7969 21.3064 23.6421 21.1565 23.4889C20.9931 23.3235 20.7938 23.1342 20.5613 22.9928C20.4317 22.9146 20.311 22.8729 20.2137 22.8729C20.1632 22.8729 20.0095 22.8729 19.8446 23.1518C19.5834 23.5946 19.5253 24.1137 19.5014 24.6087C19.4513 25.5773 19.0551 25.9373 17.9872 25.9858C17.77 25.9953 17.5546 26 17.3463 26C15.5085 26 13.9306 25.6352 12.5226 24.8849C11.1862 24.1742 10.0238 23.1618 8.86492 21.6993C7.21103 19.6092 5.75974 17.199 4.15909 13.8842C3.95914 13.4705 3.94762 13.1287 4.12481 12.8685C4.30172 12.6085 4.63794 12.4727 5.12402 12.4647C5.69182 12.4537 6.2733 12.4483 6.9005 12.4483C7.47453 12.4483 8.0764 12.4529 8.74025 12.4623C9.34441 12.4717 9.81582 12.7936 10.0682 13.3685C10.7488 14.9303 11.5347 16.2883 12.4711 17.521C12.7463 17.884 12.9824 18.1779 13.3051 18.3838C13.4416 18.4714 13.5165 18.4809 13.5424 18.4809C13.6239 18.4808 13.7039 18.3185 13.7264 18.2687C13.8234 18.0556 13.8823 17.8061 13.9121 17.4831C14.0189 16.321 14.0011 15.3606 13.856 14.4609C13.7729 13.9428 13.4796 13.6463 12.9591 13.554C12.8543 13.5357 12.5323 13.4795 12.4331 13.2163C12.3354 12.9571 12.5326 12.7433 12.6274 12.6407C12.9784 12.2566 13.3518 12 14.0296 12H18.1894C18.2124 12 18.2356 12.0021 18.2582 12.0063C19.11 12.1617 19.3354 12.5975 19.4372 13.2977C19.4392 13.3125 19.4404 13.3273 19.4404 13.3423L19.4432 17.6495L19.443 17.6587C19.4366 17.8809 19.5787 18.3584 19.7905 18.4353C19.8094 18.4408 19.826 18.4435 19.8414 18.4435C19.9413 18.4435 20.0781 18.3067 20.1988 18.1858L20.2421 18.1428C21.2644 17.1318 21.9709 15.9196 22.5272 14.8672C22.8067 14.3386 23.0517 13.7828 23.2747 13.2608C23.5083 12.7145 23.9159 12.4489 24.5208 12.4489L24.5538 12.4492L28.5545 12.4519C28.6855 12.4519 28.8267 12.4549 28.9689 12.4774C29.2564 12.5228 29.6627 12.62 29.8722 12.9386C30.0818 13.2575 29.9901 13.6388 29.9028 13.8979C29.5667 14.8799 28.9351 15.6939 28.3244 16.4811L28.3239 16.4817L28.2583 16.5663C27.939 16.9773 27.6059 17.3871 27.2837 17.7833L27.2827 17.7845L27.2825 17.7847C26.9271 18.2218 26.5595 18.6737 26.2128 19.125C25.7116 19.7799 25.7347 19.9965 26.3677 20.573C26.5871 20.7726 26.8147 20.9734 27.0349 21.1676L27.0381 21.1704L27.0384 21.1707Z" fill="#848487"/>
</svg>

<svg width="36" height="36" fill="none" xmlns="http://www.w3.org/2000/svg"><path fill-rule="evenodd" clip-rule="evenodd" d="M18 36c9.941 0 18-8.059 18-18S27.941 0 18 0 0 8.059 0 18s8.059 18 18 18zm9.038-14.83c.622.55 1.266 1.116 1.832 1.75.307.343.659.761.93 1.25.238.432.243.917.012 1.297a1.078 1.078 0 0 1-.892.52h-3.668c-.982.07-1.838-.254-2.614-.99-.355-.336-.695-.69-1.023-1.033l-.012-.012c-.148-.155-.297-.31-.447-.463a3.2 3.2 0 0 0-.595-.496.714.714 0 0 0-.347-.12c-.05 0-.204 0-.37.279-.26.443-.319.962-.343 1.457-.05.968-.446 1.328-1.514 1.377-.217.01-.432.014-.64.014-1.839 0-3.416-.365-4.824-1.115-1.337-.71-2.5-1.723-3.658-3.186-1.654-2.09-3.105-4.5-4.706-7.815-.2-.414-.211-.755-.034-1.016.177-.26.513-.395.999-.403.568-.011 1.15-.017 1.777-.017.574 0 1.175.005 1.84.014.603.01 1.075.332 1.327.906.68 1.562 1.467 2.92 2.403 4.153.275.363.511.657.834.863.137.087.212.097.237.097.082 0 .162-.163.184-.212.097-.213.156-.463.186-.786.107-1.162.09-2.122-.056-3.022-.083-.518-.376-.815-.897-.907-.105-.018-.427-.075-.526-.338-.098-.259.1-.473.194-.575.351-.384.725-.641 1.403-.641h4.16c.022 0 .046.002.068.006.852.156 1.077.591 1.18 1.292l.002.044.003 4.307v.01c-.006.222.136.7.348.776a.182.182 0 0 0 .05.009c.1 0 .237-.137.358-.258l.043-.043c1.022-1.011 1.729-2.223 2.285-3.276.28-.528.525-1.084.748-1.606.233-.546.64-.812 1.246-.812h.033l4 .003c.132 0 .273.003.415.025.287.046.694.143.903.462.21.319.118.7.03.959-.335.982-.967 1.796-1.578 2.583l-.066.085c-.319.411-.652.821-.974 1.217l-.001.002c-.356.437-.724.889-1.07 1.34-.501.655-.478.872.155 1.448.22.2.447.4.667.595l.003.002z" fill="#848487"/></svg>
